X:156
T: IST DIE SCHWARZE KOECHIN DA
N: K2267
O: Europa, Mitteleuropa, Deutschland, Dresden
R: Kinder - Lied, Reigen, Tanz - Spiel
M: 2/4
L: 1/8
K: D
 | AABB | AGF2 |
A2B2 | A2z2 |
AABB | AGFD |
AABB | AGFD |
A2B2 | A2z2

@@@ Tune index: 7493
